!!!SOCIAL_FUNCTION:	cremation legend songs
!!!PDT:	1932
!!!OTL: No_13_Song_Concerning_the_Wild_Cat.krn
!!!REG: Southwest
!!!LANG: Non-Tone
!!!LING_GROUP: Yuman-Cochimi
**kern	**kern
*staff2	*staff1
=1-	=1-
*clefF4	*clefF4
*k[f#]	*k[f#]
*M2/4	*M2/4
8GG/	8.E\L
8r	.
.	16E\Jk
8GG/	4G\
8r	.
=2||	=2||
*M3/4	*M3/4
8GG/	8E\L
8r	8E\J
8r	8G\L
8GG/	8G\J
8r	8E\L
8GG/	8G\J
=3!|:	=3!|:
*M5/8	*M5/8
8r	8A\L
8GG/	8B\
8r	8G\J
8GG/	4E\
8r	.
=4||	=4||
*M3/4	*M3/4
8GG/	8.G\L
8r	.
.	16G\Jk
8r	8G\L
8GG/	8G\J
8r	8E\L
8GG/	8G\J
=5||	=5||
*M5/8	*M5/8
8r	8A\L
8GG/	8B\
8r	8G\J
8GG/	4E\
8r	.
=6||	=6||
*M3/4	*M3/4
8GG/	8.G\L
8r	.
.	16G\Jk
8r	8G\L
8GG/	8G\J
8r	4r
8r	.
=7||	=7||
*M2/4	*M2/4
8GG/	8E\L
8r	8G\J
8GG/	4G\
8r	.
=8||	=8||
*M3/4	*M3/4
8GG/	8.E\L
8r	.
.	16G\Jk
8r	8G\L
8GG/	8G\J
8r	8E\L
8GG/	8G\J
=9||	=9||
*M5/8	*M5/8
8r	8A\L
8GG/	8B\
8r	8G\J
8GG/	4E\
8r	.
=10||	=10||
*M3/4	*M3/4
8GG/	8.G\L
8r	.
.	16G\Jk
8r	8G\L
8GG/	8G\J
8GG/	8E\L
8r	8G\J
=11||	=11||
*M5/8	*M5/8
8r	8A\L
8GG/	8B\
8r	8G\J
8GG/	4E\
8r	.
=12||	=12||
*M3/4	*M3/4
8GG/	8.G\L
8r	.
.	16G\Jk
8GG/	8G\L
8r	8G\J
8GG/	4r
8r	.
=13||	=13||
*M2/4	*M2/4
8r	8r
8r	16r
.	16G\
8GG/	4G\
8r	.
=14	=14
8GG/	4A\
8r	.
8GG/	8.A\L
8r	.
.	16A\Jk
=15	=15
8r	8B\L
8GG/	8A\J
8r	8G\L
8GG/	8G\J
=16	=16
8GG/	4A\
8r	.
8GG/	8A\L
8r	8G\J
=17	=17
8GG/	4A\
8r	.
8r	8A\L
8GG/	8G\J
=18	=18
8r	8r
8r	16r
.	16G\
8GG/	4G\
8r	.
=19	=19
8GG/	4A\
8r	.
8GG/	8.A\L
8r	.
.	16A\Jk
=20	=20
8r	8B\L
8GG/	8A\J
8r	8G\L
8r	8A\J
=21	=21
8GG/	4A\
8r	.
8GG/	8.A\L
8r	.
.	16A\Jk
=22||	=22||
*M3/4	*M3/4
8GG/	8G\L
8r	8A\J
8r	8A\L
8GG/	8G\J
8r	8E\L
8GG/	8G\J
==:|!	==:|!
*-	*-
